X:17
T:Miss Spence's Reel
M:4/4
L:1/8
S:Shetland
R:Reel
K:D
 A | "D"d2AG   F2 DF  | "C"E=C2E =c3A    | "G"B2AG  "D"F2D2 | "A"Dd2c  "D"d3   ::\
(e | "D"fa)f(d fa)f(d | "A"eg)e(c eg)e(c | "D"fa)f(d fa)f(d | "A"eg)ec "D"d2 d :|
